React/src/assets/images/backend/java.svg

<svg width="130" height="130" viewBox="0 0 130 130" fill="none" xmlns="http://www.w3.org/2000/svg">
<path d="M10.8333 113.75H108.333V102.917H10.8333V113.75ZM108.333 43.3333H97.5V27.0833H108.333V43.3333ZM108.333 16.25H21.6667V70.4167C21.6667 76.163 23.9494 81.674 28.0127 85.7373C32.076 89.8006 37.587 92.0833 43.3333 92.0833H75.8333C81.5797 92.0833 87.0907 89.8006 91.154 85.7373C95.2173 81.674 97.5 76.163 97.5 70.4167V54.1667H108.333C111.207 54.1667 113.962 53.0253 115.994 50.9937C118.025 48.962 119.167 46.2065 119.167 43.3333V27.0833C119.167 21.0708 114.292 16.25 108.333 16.25Z" fill="#F44336"/>
</svg>

<svg width="130" height="130" fill="none" xmlns="http://www.w3.org/2000/svg"><path d="M10.833 113.75h97.5v-10.833h-97.5v10.833zm97.5-70.417H97.5v-16.25h10.833v16.25zm0-27.083H21.667v54.167a21.667 21.667 0 0021.666 21.666h32.5A21.667 21.667 0 0097.5 70.417v-16.25h10.833a10.834 10.834 0 0010.834-10.834v-16.25c0-6.012-4.875-10.833-10.834-10.833z" fill="#F44336"/></svg>
